!!!!SEGMENT: pl-cz--i-25_zeidler-jozef--salve-fili-pulcherrime.krn
!!!cenid: 18xx:283
!!!COM: Zeidler, Józef
!!!COM-rismID: pe30003401
!!!CDT: ~1744-1806
!!!CNT: Polish
!!!OTL: Salve Fili pulcherrime
!!!PDT: 1827
!!!AGN: Sacred
!!!SMS-siglum: PL-CZ
!!!SMS-shelfmark: I-25
!!!SMS-shelfwork: W
!!!NIFC-rismSourceID:
!!!NIFC-islandoraID: pl-cz:31545
!!!URL-pdf-islandora: https://repozytorium.nifc.pl/islandora/object/pl-cz%3A31545/datastream/PDF/view
!!!URL-scan:
!!!ONB-nifc:
!!!AIN: 2 cor 1 organ 2 violn 1 vox
!!!key:
**kern	**fb	**kern	**dynam	**kern	**dynam	**kern	**dynam	**kern	**dynam	**kern	**text
*part6	*	*part5	*part5	*part4	*part4	*part3	*part3	*part2	*part2	*part1	*part1
*staff6	*	*staff5	*	*staff4	*	*staff3	*	*staff2	*	*staff1	*staff1
*Iorgan	*	*Ivioln	*	*Ivioln	*	*Icor	*	*Icor	*	*Ivox	*
*I"Organo	*	*I"Violino Secundo	*	*I"Violino Primo	*	*I"Corno IIdo in C	*	*I"Corno Imo in C	*	*I"Canto Solo	*
*I'Org.	*	*I'V-no Secundo	*	*I'V-no	*	*I'C	*	*I'C. in C	*	*I'C. Solo	*
*group4	*	*group3	*	*group3	*	*group2	*	*group2	*	*group1	*
*clefF4	*	*clefG2	*	*clefG2	*	*clefG2	*	*clefG2	*	*clefC1	*
*k[b-]	*	*k[]	*	*k[]	*	*k[]	*	*k[]	*	*k[]	*
*C:	*	*C:	*	*C:	*	*C:	*	*C:	*	*C:	*
*M3/8	*	*M3/8	*	*M3/8	*	*M3/8	*	*M3/8	*	*M3/8	*
=1	=1	=1	=1	=1	=1	=1	=1	=1	=1	=1	=1
!	!	!	!	!	!	!	!	!	!	!LO:TX:a:t=Problem&colon; 00r 00r 00r 0r 1r 15	!
!	!	!	!	!	!	!	!	!	!	!LO:TX:a:t=Problem&colon; 19	!
!	!	!LO:TX:a:t=Allegretto	!	!LO:TX:a:t=Allegretto	!	!LO:TX:a:t=Allegretto	!	!LO:TX:a:t=Allegretto	!	!LO:TX:a:t=Allegretto	!
8C/L	.	8G/L 8e	.	(8b\L	.	8e/L	f	8cc\L	f	4.r	.
8C/	.	8G/ 8e	.	16gg\L	.	8e/	.	8cc\	.	.	.
.	.	.	.	16ff#X\	.	.	.	.	.	.	.
8C/J	.	8G/J 8e	.	16gg\)	.	8e/J	.	8cc\J	.	.	.
.	.	.	.	16ffn\JJ	.	.	.	.	.	.	.
=2	=2	=2	=2	=2	=2	=2	=2	=2	=2	=2	=2
*	*	*tremolo	*	*	*	*	*	*	*	*	*
8C/L	.	8G/L 8e	.	16ff\LL	.	4.e/	.	4.cc\	.	4.r	.
.	.	.	.	16ee\	.	.	.	.	.	.	.
8C/	.	8G/ 8e	.	16dd\	.	.	.	.	.	.	.
.	.	.	.	16cc\	.	.	.	.	.	.	.
8C/J	.	8G/J 8e	.	16b\	.	.	.	.	.	.	.
.	.	.	.	16cc\JJ	.	.	.	.	.	.	.
=3	=3	=3	=3	=3	=3	=3	=3	=3	=3	=3	=3
.	.	.	.	16qqee/	.	.	.	.	.	.	.
!	!	!	!	!LO:TX:a:t=problem:niewyraźny zapis	!	!	!	!	!	!	!
8GG/L	7	8G/L 8f	.	16dd\LL	.	8r	.	8r	.	4.r	.
.	.	.	.	(32cc#X\L	.	.	.	.	.	.	.
.	.	.	.	32dd\JJJ)	.	.	.	.	.	.	.
8GG/	.	8G/ 8f	.	(16ccn\LL	.	8g/L	.	8dd\L	.	.	.
.	.	.	.	16b\)	.	.	.	.	.	.	.
8GG/J	.	8G/J 8f	.	16a'\	.	8g/J	.	8dd\J	.	.	.
.	.	.	.	16b'\JJ	.	.	.	.	.	.	.
=4	=4	=4	=4	=4	=4	=4	=4	=4	=4	=4	=4
8C/L	.	8G/L 8e	.	16cc\LL	.	8r	.	8r	.	4.r	.
.	.	.	.	16ee\	.	.	.	.	.	.	.
8C/	.	8G/ 8e	.	16gg\	.	8e/L	.	8cc\L	.	.	.
.	.	.	.	16ff#X\	.	.	.	.	.	.	.
8C/J	.	8G/J 8e	.	16gg\	.	8e/J	.	8cc\J	.	.	.
.	.	.	.	16ee\JJ	.	.	.	.	.	.	.
=5	=5	=5	=5	=5	=5	=5	=5	=5	=5	=5	=5
.	.	.	.	16qqee/	.	.	.	.	.	.	.
8GG/L	7	8G/L 8f	.	16dd\LL	.	8r	.	8r	.	4.r	.
.	.	.	.	(32cc#X\L	.	.	.	.	.	.	.
.	.	.	.	32dd\JJJ)	.	.	.	.	.	.	.
8GG/	.	8G/ 8f	.	16cc#\LL	.	8g/L	.	8dd\L	.	.	.
.	.	.	.	16b\	.	.	.	.	.	.	.
8GG/J	.	8G/J 8f	.	16a\	.	8g/J	.	8dd\J	.	.	.
.	.	.	.	16b\JJ	.	.	.	.	.	.	.
=6	=6	=6	=6	=6	=6	=6	=6	=6	=6	=6	=6
!	!	!	!	!LO:LB:g=original	!	!	!	!	!	!	!
.	.	.	.	16qqb/	.	.	.	.	.	.	.
8C/L	.	8G/L 8e	.	4cc\	.	8e/L	.	8cc\L	.	4.r	.
8E/	.	8G/ 8e	.	.	.	16e/L	.	16cc\L	.	.	.
.	.	.	.	.	.	16e/J	.	16cc\J	.	.	.
8C/J	.	8G/J 8e	.	8r	.	8e/J	.	8cc\J	.	.	.
*	*	*Xtremolo	*	*	*	*	*	*	*	*	*
=7	=7	=7	=7	=7	=7	=7	=7	=7	=7	=7	=7
*	*	*^	*	*	*	*	*	*	*	*	*
!LO:TX:a:t=tasto	!	!	!LO:TX:a:t=problem:ćwierćnuta z kropką na środku	!	!	!	!	!	!	!	!	!
4.GG/	.	8f/L	4.G\	.	16b\LL	.	4.g/	.	4.dd\	.	4.r	.
.	.	.	.	.	16dd\	.	.	.	.	.	.	.
.	.	8d/	.	.	16gg\	.	.	.	.	.	.	.
.	.	.	.	.	16ff\	.	.	.	.	.	.	.
.	.	8d/J	.	.	16dd\	.	.	.	.	.	.	.
.	.	.	.	.	16b\JJ	.	.	.	.	.	.	.
*	*	*v	*v	*	*	*	*	*	*	*	*	*
=8	=8	=8	=8	=8	=8	=8	=8	=8	=8	=8	=8
*	*	*tremolo	*	*	*	*	*	*	*	*	*
4.C/	.	8G/L 8e	.	16cc\LL	.	8r	.	8r	.	4.r	.
.	.	.	.	16cc\JJ	.	.	.	.	.	.	.
.	.	8G/ 8e	.	8.ee\L	.	8cc\L	.	8ee\L	.	.	.
.	.	8G/J 8e	.	.	.	8cc\J	.	8ee\J	.	.	.
.	.	.	.	16cc\Jk	.	.	.	.	.	.	.
*	*	*Xtremolo	*	*	*	*	*	*	*	*	*
=9	=9	=9	=9	=9	=9	=9	=9	=9	=9	=9	=9
4.GG/	.	8G/L 8f	.	16b\LL	.	4.g/	.	4.dd\	.	4.r	.
.	.	.	.	16dd\	.	.	.	.	.	.	.
.	.	8G/ 8d	.	16gg\	.	.	.	.	.	.	.
.	.	.	.	16ff\	.	.	.	.	.	.	.
!	!	!	!	!LO:TX:a:t=problem:niewyraźny zapis	!	!	!	!	!	!	!
.	.	8G/J 8d	.	16b\ 16ddo	.	.	.	.	.	.	.
.	.	.	.	16b\JJ	.	.	.	.	.	.	.
=10	=10	=10	=10	=10	=10	=10	=10	=10	=10	=10	=10
!LO:LB:g=original	!	!	!	!	!	!	!	!	!	!	!
!LO:TX:a:t=Pedale	!	!	!	!	!	!	!	!	!	!	!
*	*	*tremolo	*	*	*	*	*	*	*	*	*
[>4.CC/	.	8G/L 8e	.	16cc\LL	.	8r	.	8r	.	4.r	.
.	.	.	.	16ee\JJ	.	.	.	.	.	.	.
!	!	!	!	!LO:N:vis=8.	!	!	!	!	!	!	!
.	.	8G/ 8e	.	8g/L	.	8cc\L	.	8ee\L	.	.	.
.	.	8G/J 8e	.	16a/L	.	8cc\J	.	8dd\J	.	.	.
.	.	.	.	16b/JJ	.	.	.	.	.	.	.
=11	=11	=11	=11	=11	=11	=11	=11	=11	=11	=11	=11
][>4.CC/	.	8G/L 8e	.	16cc\LL	.	[>4.c/	.	[4.cc\	.	4.r	.
.	.	.	.	16ee\	.	.	.	.	.	.	.
.	.	8G/ 8e	.	(16gg\	.	.	.	.	.	.	.
.	.	.	.	16ff#X\)	.	.	.	.	.	.	.
.	.	8G/J 8e	.	16gg\	.	.	.	.	.	.	.
!	!	!	!	!LO:TX:a:t=Problem&colon; mixed beam	!	!	!	!	!	!	!
.	.	.	.	16g/JJ	.	.	.	.	.	.	.
=12	=12	=12	=12	=12	=12	=12	=12	=12	=12	=12	=12
][>4.CC/	.	8G/L 8e	.	16cc\LL	.	][>4.c/	.	][4.cc\	.	4.r	.
.	.	.	.	16ee\JJ	.	.	.	.	.	.	.
!	!	!	!	!LO:N:vis=8.	!	!	!	!	!	!	!
.	.	8G/ 8e	.	8g/L	.	.	.	.	.	.	.
.	.	8G/J 8e	.	16a/L	.	.	.	.	.	.	.
.	.	.	.	16b/JJ	.	.	.	.	.	.	.
=13	=13	=13	=13	=13	=13	=13	=13	=13	=13	=13	=13
!	!	!	!	!	!	!LO:LB:g=original	!	!LO:LB:g=original	!	!	!
][>4.CC/	.	8G/L 8e	.	16cc\LL	.	][>4.c/	.	][4.cc\	.	4.r	.
.	.	.	.	16ee\	.	.	.	.	.	.	.
.	.	8G/ 8e	.	16gg\	.	.	.	.	.	.	.
.	.	.	.	16ff#X\	.	.	.	.	.	.	.
.	.	8G/J 8e	.	16gg\	.	.	.	.	.	.	.
!	!	!	!	!LO:TX:a:t=Problem&colon; mixed beam	!	!	!	!	!	!	!
.	.	.	.	16g/JJ	.	.	.	.	.	.	.
=14	=14	=14	=14	=14	=14	=14	=14	=14	=14	=14	=14
!	!	!LO:LB:g=original	!	!LO:LB:g=original	!	!	!	!	!	!	!
][>4.CC/	.	8G/L 8e	.	16cc\LL	.	](>4.c/	.	]4.cc\	.	4.r	.
.	.	.	.	16ee\JJ	.	.	.	.	.	.	.
!	!	!	!	!LO:N:vis=8.	!	!	!	!	!	!	!
.	.	8G/ 8e	.	8g/L	.	.	.	.	.	.	.
.	.	8G/J 8e	.	16a/L	.	.	.	.	.	.	.
.	.	.	.	16b/JJ	.	.	.	.	.	.	.
*	*	*Xtremolo	*	*	*	*	*	*	*	*	*
=15	=15	=15	=15	=15	=15	=15	=15	=15	=15	=15	=15
](>4.CC/	.	16G/LL 16e	.	16cc\LL	.	16e/LL)	.	16cc\LL	.	4.r	.
.	.	16G/JJ 16e	.	16b\JJ	.	16e/JJ	.	16cc\JJ	.	.	.
.	.	4G/ 4e	.	4cc\	.	4e/	.	4cc\	.	.	.
=16	=16	=16	=16	=16	=16	=16	=16	=16	=16	=16	=16
*	*	*^	*	*	*	*	*	*	*	*	*
!	!	!LO:N:vis=8.	!LO:TX:a:t=problem:ćwierćnuta z kropką na środku	!	!	!	!	!	!LO:TX:a:t=Problem&colon; 00r 4	!	!	!
8C/L)	.	8e/L	4G./	.	8cc\L	.	4.r	.	4.r	.	8cc\	Sal-
8C/	.	8e/	.	.	(16gg\L	.	.	.	.	.	4gg\	-ve
.	.	.	.	.	16ff#X\	.	.	.	.	.	.	.
8C/J	.	8e/J	.	.	16gg\)	.	.	.	.	.	.	.
.	.	.	.	.	16ffn\JJ	.	.	.	.	.	.	.
*	*	*v	*v	*	*	*	*	*	*	*	*	*
=17	=17	=17	=17	=17	=17	=17	=17	=17	=17	=17	=17
*	*	*tremolo	*	*	*	*	*	*	*	*	*
.	.	.	.	8qqff/	.	.	.	.	.	.	.
8C/L	.	8G/L 8e	.	8ee\L	.	4.r	.	4.r	.	8ee\	fi-
8C/	.	8G/ 8e	.	16dd\L	.	.	.	.	.	4cc\	-li
.	.	.	.	16cc\	.	.	.	.	.	.	.
8C/J	.	8G/J 8e	.	16b\	.	.	.	.	.	.	.
.	.	.	.	16cc\JJ	.	.	.	.	.	.	.
=18	=18	=18	=18	=18	=18	=18	=18	=18	=18	=18	=18
.	.	.	.	16qqee/	.	.	.	.	.	.	.
8GG/L	7	8G/L 8f	.	16dd\LL	.	4.r	.	4.r	.	8dd\	pul-
.	.	.	.	(32cc\L	.	.	.	.	.	.	.
.	.	.	.	32dd\JJJ)	.	.	.	.	.	.	.
!	!	!	!	!	!	!	!	!	!	!LO:TX:a:t=Sic!&colon; heri zamiast cherri	!
8GG/	.	8G/ 8f	.	16cc\LL	.	.	.	.	.	16cc\LL	-he-
.	.	.	.	16b\	.	.	.	.	.	16b\JJ	.
8GG/J	.	8G/J 8f	.	16a\	.	.	.	.	.	16a\LL	-ri-
.	.	.	.	16b\JJ	.	.	.	.	.	16b\JJ	.
=19	=19	=19	=19	=19	=19	=19	=19	=19	=19	=19	=19
8C/L	.	8G/L 8e	.	16cc\LL	.	4.r	.	4.r	.	4cc\	-me
.	.	.	.	16ee\	.	.	.	.	.	.	.
8C/	.	8G/ 8e	.	16gg\	.	.	.	.	.	.	.
.	.	.	.	16ff#X\	.	.	.	.	.	.	.
8C/J	.	8G/J 8e	.	16gg\	.	.	.	.	.	8r	.
.	.	.	.	16ee\JJ	.	.	.	.	.	.	.
=20	=20	=20	=20	=20	=20	=20	=20	=20	=20	=20	=20
!	!	!	!	!	!	!	!	!	!	!LO:TX:a:t=Problem&colon; 0r2	!
.	.	.	.	16qqee/	.	.	.	.	.	.	.
8GG/L	7	8G/L 8f	.	16dd\LL	.	8r	.	8r	.	4.r	.
.	.	.	.	32cc\L	.	.	.	.	.	.	.
.	.	.	.	32dd\JJJ	.	.	.	.	.	.	.
!	!	!	!	!	!	!	!	!	!LO:DY:a	!	!
8GG/	.	8G/ 8f	.	16cc\LL	.	8g/L	f	8dd\L	f	.	.
.	.	.	.	16b\	.	.	.	.	.	.	.
8GG/J	.	8G/J 8f	.	16a\	.	8g/J	.	8dd\J	.	.	.
.	.	.	.	16b\JJ	.	.	.	.	.	.	.
*	*	*Xtremolo	*	*	*	*	*	*	*	*	*
=21	=21	=21	=21	=21	=21	=21	=21	=21	=21	=21	=21
8C/L	.	16e/LL	.	(16cc\LL	.	8e/L	.	8cc\L	.	4.r	.
.	.	16d/	.	16b\	.	.	.	.	.	.	.
8C/	.	16e/	.	16cc\)	.	8e/	.	8cc\	.	.	.
.	.	16g/JJ	.	16ee\J	.	.	.	.	.	.	.
8C/J	.	8e/	.	8cc\J	.	8e/J	.	8cc\J	.	.	.
=22	=22	=22	=22	=22	=22	=22	=22	=22	=22	=22	=22
!	!	!	!	!LO:LB:g=original	!	!	!	!LO:TX:a:t=Problem&colon; 00r 4	!	!	!
8G\L	.	16b\LL	p	(16dd\LL	p	4.r	.	4.r	.	8dd\	sal-
.	.	(16a\	.	16cc#X\	.	.	.	.	.	.	.
!LO:TX:a:t=Problem&colon; mixed beam	!	!	!	!	!	!	!	!	!	!	!
8GG/J	.	16b\	.	16dd\	.	.	.	.	.	16dd\LL	.
.	.	16cc\	.	16ee\)	.	.	.	.	.	16ee\	.
8r	.	16b\	.	16dd\	.	.	.	.	.	16dd\	.
.	.	16a\JJ)	.	16ccn\JJ	.	.	.	.	.	16cc\JJ	-ve
=23	=23	=23	=23	=23	=23	=23	=23	=23	=23	=23	=23
!LO:LB:g=original	!	!	!	!	!	!	!	!	!	!	!
8G\L	.	8g/	.	16b/LL	.	4.r	.	4.r	.	8b\	Je-
.	.	.	.	16a/	.	.	.	.	.	.	.
8G\	.	4d/	.	16b/	.	.	.	.	.	4g\	-su
.	.	.	.	16g/	.	.	.	.	.	.	.
8F\J	2	.	.	16a/	.	.	.	.	.	.	.
.	.	.	.	16b/JJ	.	.	.	.	.	.	.
=24	=24	=24	=24	=24	=24	=24	=24	=24	=24	=24	=24
!LO:TX:a:t=Problem&colon; mixed beam	!	!LO:TX:a:t=Problem&colon; mixed beam	!	!	!	!	!	!	!	!	!
8E\L	6	8g/L	.	16cc\LL	.	4.r	.	4.r	.	8cc\	dul-
.	.	.	.	32dd\L	.	.	.	.	.	.	.
.	.	.	.	32ee\JJJ	.	.	.	.	.	.	.
8BB-/	6 5	8dd\	.	16ff\LL	.	.	.	.	.	8ff\	-cis-
.	.	.	.	16dd\	.	.	.	.	.	.	.
8C/J	.	8cc\J	.	16ee\	.	.	.	.	.	8ee\	-ſi-
.	.	.	.	16gg\JJ	.	.	.	.	.	.	.
=25	=25	=25	=25	=25	=25	=25	=25	=25	=25	=25	=25
8G\L	.	4b\	.	4g\ 4dd	.	4.r	.	4.r	.	4dd\	-me
16G\L	.	.	.	.	.	.	.	.	.	.	.
16F\	.	.	.	.	.	.	.	.	.	.	.
16E\	.	8r	.	8r	.	.	.	.	.	8r	.
16D\JJ	.	.	.	.	.	.	.	.	.	.	.
=26	=26	=26	=26	=26	=26	=26	=26	=26	=26	=26	=26
8C/L	.	16ee\LL	.	16gg\LL	.	8r	p	8r	p	16gg\	li
.	.	16dd\	.	16ff\	.	.	.	.	.	16ff\	li
!LO:TX:a:t=Problem&colon; mixed beam - 4 takty	!	!	!	!	!	!	!	!	!	!	!
8c\	.	16cc\	.	16ee\	.	8cc\L	.	8ee\L	.	8ee\	li
.	.	16b\	.	16dd\	.	.	.	.	.	.	.
8C/J	.	16cc\	.	16ee\	.	8cc\J	.	8ee\J	.	8cc\	li
.	.	16g\JJ	.	16cc\JJ	.	.	.	.	.	.	.
=27	=27	=27	=27	=27	=27	=27	=27	=27	=27	=27	=27
!	!	!LO:LB:g=original	!	!	!	!	!	!	!	!LO:LB:g=original	!
8r	.	16ff\LL	.	16ff\LL	.	8r	.	8r	.	16ff\	{li
.	.	16ee\	.	16ee\	.	.	.	.	.	16ee\	li
8G\L	.	16dd\	.	16dd\	.	8g/L	.	8dd\L	.	4dd\	li
.	.	16cc\J	.	16cc\	.	.	.	.	.	.	.
8GG/J	.	8b\J	.	16b\	.	8g/J	.	8dd\J	.	.	.
.	.	.	.	16g\JJ	.	.	.	.	.	.	.
=28	=28	=28	=28	=28	=28	=28	=28	=28	=28	=28	=28
8r	.	16ee\LL	.	16gg\LL	.	8r	.	8r	.	16gg\	li
.	.	16dd\	.	16ff\	.	.	.	.	.	16ff\	li
8c\L	.	16cc\	.	16ee\	.	8cc\L	.	8ee\L	.	8ee\	li
.	.	16b\	.	16dd\	.	.	.	.	.	.	.
8C/J	.	16cc\	.	16ee\	.	8cc\J	.	8ee\J	.	8cc\	li
.	.	16g\JJ	.	16cc\JJ	.	.	.	.	.	.	.
=29	=29	=29	=29	=29	=29	=29	=29	=29	=29	=29	=29
8r	.	16dd\LL	.	16ff\LL	.	8r	.	8r	.	16ff\	li
.	.	16cc\	.	16ee\	.	.	.	.	.	16ee\	li
8G\L	.	16b\	.	16dd\	.	8g/L	.	8dd\L	.	4dd\	li}
.	.	16a\J	.	16cc\	.	.	.	.	.	.	.
8GG/J	.	8g\J	.	16b\	.	8g/J	.	8dd\J	.	.	.
.	.	.	.	16g\JJ	.	.	.	.	.	.	.
=30	=30	=30	=30	=30	=30	=30	=30	=30	=30	=30	=30
!	!	!	!	!LO:LB:g=original	!	!	!	!	!	!	!
8C/L	.	8b\L	.	16ee\LL	.	8cc\L	f	8ee\L	f	16ee\	o-
.	.	.	.	16cc\	.	.	.	.	.	16cc\	-di-
8BB-/	6 5	8dd\	.	16ff\	.	8dd\	.	8ff\	.	8ff\	-le-
.	.	.	.	16dd\	.	.	.	.	.	.	.
8C/J	.	8cc\J	.	16ee\	.	8cc\J	.	8ee\J	.	8ee\	-cte
.	.	.	.	16cc\JJ	.	.	.	.	.	.	.
=31	=31	=31	=31	=31	=31	=31	=31	=31	=31	=31	=31
8G\	.	16f/LL	.	16dd\LL	.	8g/L	.	8dd\L	.	16dd\LL	Fi-
.	.	16d/JJ	.	16b\JJ	.	.	.	.	.	16b\JJ	.
4C/	.	4e/	.	8.cc\L	.	16e/L	.	16cc\L	.	4cc\	-li
.	.	.	.	.	.	16e/J	.	16cc\J	.	.	.
.	.	.	.	.	.	(8e/J	.	8cc\J	.	.	.
!	!	!	!	!LO:TX:a:t=Problem&colon; mixed beam	!	!	!	!	!	!	!
.	.	.	.	16g/Jk	.	.	.	.	.	.	.
=32	=32	=32	=32	=32	=32	=32	=32	=32	=32	=32	=32
!LO:TX:a:t=tastoped	!	!	!	!	!	!	!	!LO:LB:g=original	!	!LO:TX:a:t=Problem&colon; 00r 4	!
[<4.C/	.	16c/LL	.	16cc\LL	.	)[>4.c/	.	[4.cc\	.	4.r	.
.	.	16d/	.	16dd\	.	.	.	.	.	.	.
.	.	16e/	.	16ee\	.	.	.	.	.	.	.
.	.	16f/	.	16ff\	.	.	.	.	.	.	.
.	.	16g/	.	16gg\	.	.	.	.	.	.	.
.	.	16f#X/JJ	.	16ff#X\JJ	.	.	.	.	.	.	.
=33	=33	=33	=33	=33	=33	=33	=33	=33	=33	=33	=33
][<4.C/	.	16a/LL	.	16aa\LL	.	][>4.c/	.	]4.cc\[	.	4.r	.
.	.	16f/JJ	.	16ff#X\JJ	.	.	.	.	.	.	.
!	!	!	!	!LO:TX:a:t=Problem&colon; kropka pomiędzy kasownikiem a pierwszą nutą z trioli	!	!	!	!	!	!	!
.	.	8.g/L	.	8.gg\L	.	.	.	.	.	.	.
.	.	(48fn/LL	.	48ffn\LL	.	.	.	.	.	.	.
.	.	48e/	.	48ee\	.	.	.	.	.	.	.
.	.	48d/JJJ)	.	48dd\JJJ	.	.	.	.	.	.	.
=34	=34	=34	=34	=34	=34	=34	=34	=34	=34	=34	=34
!LO:TX:a:t=3.	!	!	!	!	!	!	!	!	!	!	!
][<4.C/	.	16c/LL	.	16cc\LL	.	][>4.c/	.	]4.cc\[	.	4.r	.
.	.	16B/	.	16b\	.	.	.	.	.	.	.
.	.	16c/	.	16cc\	.	.	.	.	.	.	.
.	.	16d/	.	16dd\	.	.	.	.	.	.	.
.	.	16e/	.	16ee\	.	.	.	.	.	.	.
.	.	16f#X/JJ	.	16ff#X\JJ	.	.	.	.	.	.	.
=35	=35	=35	=35	=35	=35	=35	=35	=35	=35	=35	=35
!LO:LB:g=original	!	!	!	!	!	!	!	!	!	!	!
!LO:TX:a:t=4.	!	!	!	!	!	!	!	!	!	!	!
][<4.C/	.	16a/LL	.	16aa\LL	.	4.c/]	.	4.cc\]	.	4.r	.
.	.	16f#X/JJ	.	16ff#X\JJ	.	.	.	.	.	.	.
.	.	8.g/L	.	8.gg\L	.	.	.	.	.	.	.
.	.	16e/Jk	.	16ee\Jk	.	.	.	.	.	.	.
=36	=36	=36	=36	=36	=36	=36	=36	=36	=36	=36	=36
!LO:TX:a:t=5.	!	!LO:LB:g=original	!	!	!	!	!	!	!	!	!
][<4.C/	.	(16fn/LL	.	(16ff\LL	.	8r	p	8r	p	16ff\	li
.	.	32a/L	.	32aa\L	.	.	.	.	.	16aa\	li
.	.	32g/JJJ)	.	32gg\JJJ)	.	.	.	.	.	.	.
.	.	16f/LL	.	(16ff\LL	.	8g/L	.	8dd\L	.	8ff\	li
.	.	16e/	.	16ee\)	.	.	.	.	.	.	.
.	.	16f/	.	16ff'\	.	8g/J	.	8dd\J	.	8dd\	li
.	.	16d/JJ	.	16dd'\JJ	.	.	.	.	.	.	.
=37	=37	=37	=37	=37	=37	=37	=37	=37	=37	=37	=37
!LO:TX:a:t=6.	!	!	!	!	!	!	!	!	!	!	!
][<4.C/	.	(16e/LL	.	(16ee\LL	.	8r	.	8r	.	16dd\	li
.	.	32g/L	.	32gg\L	.	.	.	.	.	16gg\	li
.	.	32f/JJJ)	.	32ff\JJJ)	.	.	.	.	.	.	.
.	.	16e/LL	.	16ee\LL	.	8cc\L	.	8ee\L	.	4cc\	li
.	.	16d/	.	16dd\	.	.	.	.	.	.	.
.	.	16e/	.	16ee\	.	8cc\J	.	8ee\J	.	.	.
.	.	16c/JJ	.	16cc\JJ	.	.	.	.	.	.	.
=38	=38	=38	=38	=38	=38	=38	=38	=38	=38	=38	=38
!LO:TX:a:t=7.	!	!	!LO:LB:g=original	!	!	!	!	!	!	!	!
][<4.C/	.	(16fn/LL	.	(16ff\LL	.	8r	.	8r	.	16ff\	{li
.	.	32a/L	.	32aa\L	.	.	.	.	.	16aa\	li
.	.	32g/JJJ)	.	32gg\JJJ)	.	.	.	.	.	.	.
.	.	16f/LL	.	16ff\LL	.	8g/L	.	8dd\L	.	8ff\	li
.	.	16e/	.	16ee\	.	.	.	.	.	.	.
.	.	16f/	.	16ff\	.	8g/J	.	8dd\J	.	8b\ 8dd	li
.	.	16d/JJ	.	16dd\JJ	.	.	.	.	.	.	.
=39	=39	=39	=39	=39	=39	=39	=39	=39	=39	=39	=39
!LO:TX:a:t=8.	!	!	!	!	!	!	!	!	!	!LO:LB:g=original	!
4.C/]	.	(16e/LL	.	(16ee\LL	.	8r	.	8r	.	16ee\	li
.	.	32g/L	.	32gg\L	.	.	.	.	.	16gg\	li
.	.	32f/JJJ)	.	32ff\JJJ)	.	.	.	.	.	.	.
.	.	16e/LL	.	(16ee\LL	.	8e/L	.	8cc\L	.	4cc\	li}
.	.	16d/	.	16dd\)	.	.	.	.	.	.	.
.	.	16e/	.	16ee'\	.	8e/J	.	8cc\J	.	.	.
.	.	16c/JJ	.	16cc'\JJ	.	.	.	.	.	.	.
=40	=40	=40	=40	=40	=40	=40	=40	=40	=40	=40	=40
4.GG/	.	(16d/LL	.	(16dd\LL	.	8r	.	8r	.	16dd\	o-
.	.	32e/L	.	32ee\L	.	.	.	.	.	16dd\	-di-
.	.	32d/JJJ)	.	32dd\JJJ)	.	.	.	.	.	.	.
.	.	16B/LL	.	(16b/LL	.	8g/L	.	8dd\L	.	8b\	-le-
.	.	16A/	.	16a/)	.	.	.	.	.	.	.
.	.	16B/	.	16b'/	.	8g/J	.	8dd\J	.	8g\	-cte
!	!	!LO:TX:problem=ręczna adnoacja 'g'	!	!	!	!	!	!	!	!	!
.	.	16G/JJ	.	16g'/JJ	.	.	.	.	.	.	.
=41	=41	=41	=41	=41	=41	=41	=41	=41	=41	=41	=41
!LO:TX:a:t=1.	!	!	!	!	!	!	!	!	!	!	!
[<4.C/	.	16c/LL	.	16cc\LL	.	[>4.c/	.	[4.cc\	f	8cc\	Fi-
.	.	16c/JJ	.	16cc\JJ	.	.	.	.	.	.	.
.	.	8.g/L	.	8.ee\L	.	.	.	.	.	4cc\	-li
.	.	16f/Jk	.	16dd\Jk	.	.	.	.	.	.	.
=42	=42	=42	=42	=42	=42	=42	=42	=42	=42	=42	=42
*	*	*^	*	*	*	*	*	*	*	*	*
!LO:TX:a:t=2.	!	!	!LO:TX:a:t=problem:ćwierćnuta z kropką na środku	!	!	!	!	!	!	!	!LO:TX:a:t=Problem&colon; 00r 1r 5	!
][<4.C/	.	8e/L	4.G/	.	16cc\LL	.	][>4.c/	.	]4.cc\[	.	4.r	.
.	.	.	.	.	16ee\	.	.	.	.	.	.	.
.	.	8e/	.	.	16gg\	.	.	.	.	.	.	.
.	.	.	.	.	16ff#X\	.	.	.	.	.	.	.
.	.	8f/J	.	.	16gg\	.	.	.	.	.	.	.
!	!	!	!	!	!LO:TX:a:t=Problem&colon; mixed beam	!	!	!	!	!	!	!
.	.	.	.	.	16g/JJ	.	.	.	.	.	.	.
=43	=43	=43	=43	=43	=43	=43	=43	=43	=43	=43	=43	=43
!LO:TX:a:t=3.	!	!	!LO:TX:a:t=problem:ćwierćnuta z kropką na środku	!	!	!	!	!	!	!	!	!
][<4.C/	.	16e/LL	4.G\	.	16cc\LL	.	][>4.c/	.	]4.cc\[	.	4.r	.
.	.	16e/JJ	.	.	16cc\JJ	.	.	.	.	.	.	.
.	.	8.g/L	.	.	8.ee\L	.	.	.	.	.	.	.
.	.	16f/Jk	.	.	16dd\Jk	.	.	.	.	.	.	.
=44	=44	=44	=44	=44	=44	=44	=44	=44	=44	=44	=44	=44
!LO:TX:a:t=4.	!	!LO:LB:g=original	!	!	!	!	!	!	!	!	!	!
!	!	!	!LO:TX:a:t=problem:ćwierćnuta z kropką na środku	!	!	!	!	!	!	!	!	!
][<4.C/	.	8e/L	4.G\	.	16cc\LL	.	][>4.c/	.	]4.cc\[	.	4.r	.
.	.	.	.	.	16ee\	.	.	.	.	.	.	.
.	.	8e/	.	.	16gg\	.	.	.	.	.	.	.
.	.	.	.	.	16ff#X\	.	.	.	.	.	.	.
.	.	8f/J	.	.	16gg\	.	.	.	.	.	.	.
!	!	!	!	!	!LO:TX:a:t=Problem&colon; mixed beam	!	!	!	!	!	!	!
.	.	.	.	.	16g/JJ	.	.	.	.	.	.	.
=45	=45	=45	=45	=45	=45	=45	=45	=45	=45	=45	=45	=45
!	!	!	!LO:TX:a:t=problem:ćwierćnuta z kropką na środku	!	!	!	!	!	!	!	!	!
16C/LL]	.	16e/LL	4.G\	.	16cc\LL	.	4.c/]	.	]4.cc\[	.	4.r	.
16C/JJ	.	16e/JJ	.	.	16cc\JJ	.	.	.	.	.	.	.
4C/	.	8.g/L	.	.	8.ee\L	.	.	.	.	.	.	.
.	.	16f/Jk	.	.	16dd\Jk	.	.	.	.	.	.	.
=46	=46	=46	=46	=46	=46	=46	=46	=46	=46	=46	=46	=46
!	!	!	!LO:TX:a:t=problem:ćwierćnuta z kropką na środku	!	!LO:LB:g=original	!	!	!	!	!	!	!
8C/	.	16e/LL	4.G\	.	16cc\LL	.	16e/LL	.	16cc\LL]	.	4.r	.
.	.	16e/JJ	.	.	16cc\JJ	.	16e/JJ	.	16cc\JJ	.	.	.
8r	.	4e/	.	.	4cc\	.	4e/	.	4cc\	.	.	.
8c\	3	.	.	.	.	.	.	.	.	.	.	.
.	4#	.	.	.	.	.	.	.	.	.	.	.
*	*	*v	*v	*	*	*	*	*	*	*	*	*
=47	=47	=47	=47	=47	=47	=47	=47	=47	=47	=47	=47
!	!	!	!	!	!	!LO:LB:g=original	!	!LO:LB:g=original	!	!	!
!	!	!	!	!	!	!	!	!LO:TX:a:t=Problem&colon; 16	!	!	!
8B-\L	6	16c/LL	p	16cc\LL	.	4.r	.	4.r	.	16cc\LL	Lui-
.	.	16B/	.	16b\	.	.	.	.	.	16b\	.
16B-\L	.	16c/	.	16cc\	.	.	.	.	.	16cc\	.
16A\	.	16d/	.	16dd\	.	.	.	.	.	16dd\JJ	.
16B-\	.	16e/	.	16ee\	.	.	.	.	.	16ee\LL	-de
16G\JJ	.	16f#X/JJ	.	16ff#X\JJ	.	.	.	.	.	16ff#X\JJ	.
=48	=48	=48	=48	=48	=48	=48	=48	=48	=48	=48	=48
8c\	.	8g/	.	8gg\	.	4.r	.	4.r	.	8gg\	coe-
8r	.	4d/	.	4dd\	.	.	.	.	.	4dd\	-lis
8c\	3	.	.	.	.	.	.	.	.	.	.
.	4#	.	.	.	.	.	.	.	.	.	.
=49	=49	=49	=49	=49	=49	=49	=49	=49	=49	=49	=49
!LO:LB:g=original	!	!	!	!	!	!	!	!	!	!	!
8B-\L	6	16e/LL	.	16ee\LL	.	4.r	.	4.r	.	16ee\LL	de-
.	.	16d/	.	16dd\	.	.	.	.	.	16dd\	.
16B-\L	.	16c/	.	16cc\	.	.	.	.	.	16cc\	.
16A\	.	16d/	.	16dd\	.	.	.	.	.	16dd\JJ	.
16B-\	.	16e/	.	16ee\	.	.	.	.	.	16ee\LL	-scen-
16G\JJ	.	16f#X/JJ	.	16ff#X\JJ	.	.	.	.	.	16ff#X\JJ	.
=50	=50	=50	=50	=50	=50	=50	=50	=50	=50	=50	=50
!	!	!	!	!LO:TX:a:t=Problem&colon; dodatkowy takt dopisany nad pięciolinią	!	!	!	!	!	!	!
8A\L	.	8g/	.	8gg\	.	4.r	.	4.r	.	8gg\	-di-
8F#X\	5	4d/	.	4dd\	.	.	.	.	.	4dd\	-sti
8D\J	8	.	.	.	.	.	.	.	.	.	.
.	7	.	.	.	.	.	.	.	.	.	.
=51	=51	=51	=51	=51	=51	=51	=51	=51	=51	=51	=51
8G\L	.	16a\LL	.	16cc\LL	.	4.r	.	4.r	.	16cc\LL	in
.	.	16g\	.	16b\	.	.	.	.	.	16b\JJ	.
8r	.	16a\	.	16cc\	.	.	.	.	.	16cc\LL	ven-
.	.	16cc\	.	16ee\	.	.	.	.	.	16ee\JJ	.
8G\J	.	16b\	.	16dd\	.	.	.	.	.	16dd\LL	-tre
.	.	16a\JJ	.	16cc\JJ	.	.	.	.	.	16cc\JJ	.
=52	=52	=52	=52	=52	=52	=52	=52	=52	=52	=52	=52
8A\L	.	16g\LL	.	16cc\LL	.	4.r	.	4.r	.	16b\LL	mio
.	.	16a\JJ	.	16cc\	.	.	.	.	.	16cc\JJ	.
8F#X\	.	4b\	.	16cc#X\	.	.	.	.	.	4dd\	.
.	.	.	.	16dd\	.	.	.	.	.	.	.
8D\J	8	.	.	16b\	.	.	.	.	.	.	.
.	7	.	.	16g\JJ	.	.	.	.	.	.	.
=53	=53	=53	=53	=53	=53	=53	=53	=53	=53	=53	=53
!	!	!	!	!	!	!	!	!	!	!LO:LB:g=original	!
8G\L	.	16a\LL	.	16cc\LL	.	4.r	.	4.r	.	16cc\LL	{in
.	.	16g\	.	16b\	.	.	.	.	.	16b\JJ	.
8r	.	16a\	.	16cc\	.	.	.	.	.	16cc\LL	ven-
.	.	16cc\	.	16ee\	.	.	.	.	.	16ee\JJ	.
!LO:TX:a:t=Problem&colon; mixed beam	!	!	!	!	!	!	!	!	!	!	!
8GG/J	.	16b\	.	16dd\	.	.	.	.	.	16dd\LL	-tre
.	.	16a\JJ	.	16cc\JJ	.	.	.	.	.	16cc\JJ	.
=54	=54	=54	=54	=54	=54	=54	=54	=54	=54	=54	=54
!	!	!LO:LB:g=original	!	!	!	!	!	!	!	!	!
4C/	5	16g/LL	.	16b\LL	.	4.r	.	4.r	.	16b\LL	mio}
.	.	16a/JJ	.	16cc\	.	.	.	.	.	16cc\JJ	.
.	.	4b/	.	16cc#X\	.	.	.	.	.	4dd\	.
.	.	.	.	16dd\	.	.	.	.	.	.	.
8C#X/	5-	.	.	16b\JJ	.	.	.	.	.	.	.
.	.	.	.	16ryy	.	.	.	.	.	.	.
=55	=55	=55	=55	=55	=55	=55	=55	=55	=55	=55	=55
8D\L	5#	4g/	.	16ee\LL	.	4.r	.	4.r	.	16ee\LL	man-
.	.	.	.	16dd\	.	.	.	.	.	16dd\	.
16d\L	.	.	.	16cc\	.	.	.	.	.	16cc\	.
16c\	.	.	.	16b\	.	.	.	.	.	16b\	.
16B-\	.	8e/	.	16a\	.	.	.	.	.	16a\	.
16A\JJ	.	.	.	16g\JJ	.	.	.	.	.	16g\JJ	.
=56	=56	=56	=56	=56	=56	=56	=56	=56	=56	=56	=56
8G\L	.	8A/L	.	24f#X/LL	.	4.r	.	4.r	.	8f#X/	-sis-
.	.	.	.	24g/	.	.	.	.	.	.	.
.	.	.	.	24a/JJ	.	.	.	.	.	.	.
8B-\	.	8A/J	.	4d/	.	.	.	.	.	4d/	-ti
8G\J	.	8r	.	.	.	.	.	.	.	.	.
=57	=57	=57	=57	=57	=57	=57	=57	=57	=57	=57	=57
!	!	!	!	!LO:PB:g=original	!	!	!	!	!	!	!
8d\L	3#	16b/KL	.	(16dd\LL	.	4.r	.	4.r	.	16dd\	li
.	.	8b/	.	32ee\L	.	.	.	.	.	16dd\	li
.	.	.	.	32ff#X\JJJ)	.	.	.	.	.	.	.
8D\J	.	.	.	8gg\L	.	.	.	.	.	8gg\	li
.	.	8b/	.	.	.	.	.	.	.	.	.
8r	.	.	.	8gg\J	.	.	.	.	.	8gg\	li
.	.	16b/Jk	.	.	.	.	.	.	.	.	.
=58	=58	=58	=58	=58	=58	=58	=58	=58	=58	=58	=58
8G\L	.	16a/KL	.	16ff#X\LL	.	4.r	.	4.r	.	16ff#X'\LL	{li
.	.	8a/	.	16ee\J	.	.	.	.	.	16ee'\JJ	li
8B-\	.	.	.	8ff#\	.	.	.	.	.	8ff#\	li
.	.	8a/	.	.	.	.	.	.	.	.	.
8G\J	.	.	.	8dd\J	.	.	.	.	.	8dd\	li
.	.	16a/Jk	.	.	.	.	.	.	.	.	.
=59	=59	=59	=59	=59	=59	=59	=59	=59	=59	=59	=59
!LO:LB:g=original	!	!	!	!	!	!	!	!	!	!	!
8d\L	3#	16b/KL	.	16gg\LL	.	4.r	.	4.r	.	16gg\	li
.	.	8b/	.	16ff\	.	.	.	.	.	16ff#X\	li
!LO:TX:a:t=Problem&colon; mixed beam	!	!	!	!	!	!	!	!	!	!	!
8D/J	.	.	.	16gg\	.	.	.	.	.	8gg\	li
.	.	8b/	.	16dd\	.	.	.	.	.	.	.
8r	.	.	.	16bb\	.	.	.	.	.	8gg\	li
.	.	16b/Jk	.	16gg\JJ	.	.	.	.	.	.	.
=60	=60	=60	=60	=60	=60	=60	=60	=60	=60	=60	=60
8G\	.	16a/KL	.	16ff\LL	.	4.r	.	4.r	.	16ff'\LL	li
.	.	8a/	.	16ee\	.	.	.	.	.	16ee'\JJ	li
8r	.	.	.	16ff\	.	.	.	.	.	8ff\L	li
.	.	8a/	.	16aa\J	.	.	.	.	.	.	.
8GG/	.	.	.	8dd\J	.	.	.	.	.	8dd\J	li}
.	.	16a/Jk	.	.	.	.	.	.	.	.	.
=61	=61	=61	=61	=61	=61	=61	=61	=61	=61	=61	=61
8D\L	7 3	8b\	.	16gg\LL	.	4.r	.	4.r	.	16gg\	o-
.	.	.	.	16dd\	.	.	.	.	.	16dd\	-di-
8G#\	.	8r	.	16b\	.	.	.	.	.	8b\	-le-
.	.	.	.	16dd\	.	.	.	.	.	.	.
!LO:TX:a:t=Problem&colon; mixed beam	!	!	!	!	!	!	!	!	!	!	!
8GG/J	.	(16B/LL	.	16g\	.	.	.	.	.	8g\	-cte
.	.	16d/JJ)	.	16b\JJ	.	.	.	.	.	.	.
=62	=62	=62	=62	=62	=62	=62	=62	=62	=62	=62	=62
!LO:TX:a:t=1.	!	!	!	!	!	!	!	!	!	!LO:LB:g=original	!
!LO:TX:b:t=tasto pedale	!	!	!	!	!	!	!	!	!	!	!
[>4.GG/	.	16c/LL	.	16a/LL	.	4.r	.	4.r	.	16a\LL	Fi-
.	.	16A/JJ	.	16f#X/JJ	.	.	.	.	.	16f#X\JJ	.
.	.	4B/	.	4g/	.	.	.	.	.	4g\	-li
=63	=63	=63	=63	=63	=63	=63	=63	=63	=63	=63	=63
!LO:TX:a:t=2.	!	!	!	!	!	!	!	!	!	!LO:TX:a:t=Problem&colon; 00r 4	!
][>4.GG/	.	16G/LL	.	16g/LL	.	[>4.G/	.	[4.g/	.	4.r	.
.	.	16A/	.	16a/	.	.	.	.	.	.	.
.	.	16B/	.	16b/	.	.	.	.	.	.	.
.	.	16c#X/	.	16cc/	.	.	.	.	.	.	.
.	.	16d/	.	16dd/	.	.	.	.	.	.	.
.	.	16c#X/JJ	.	16cc#X/JJ	.	.	.	.	.	.	.
=64	=64	=64	=64	=64	=64	=64	=64	=64	=64	=64	=64
!LO:TX:a:t=3.	!	!	!	!LO:LB:g=original	!	!	!	!	!	!	!
][>4.GG/	.	16e/LL	.	16ee\LL	.	][>4.G/	.	]4.g/[	.	4.r	.
.	.	16c#X/JJ	.	16cc#X\JJ	.	.	.	.	.	.	.
.	.	4d/	.	8.dd\L	.	.	.	.	.	.	.
.	.	.	.	(48ccn\LL	.	.	.	.	.	.	.
.	.	.	.	48b\	.	.	.	.	.	.	.
.	.	.	.	48a\JJJ)	.	.	.	.	.	.	.
=65	=65	=65	=65	=65	=65	=65	=65	=65	=65	=65	=65
!LO:TX:a:t=4.	!	!LO:LB:g=original	!	!	!	!	!	!	!	!	!
][>4.GG/	.	16G/LL	.	16g\LL	.	][>4.G/ 4.g	.	]4.g/[	.	4.r	.
.	.	16A/	.	16a\	.	.	.	.	.	.	.
.	.	16B/	.	16b\	.	.	.	.	.	.	.
.	.	16c#X/	.	16cc#X\	.	.	.	.	.	.	.
.	.	16d/	.	16dd\	.	.	.	.	.	.	.
.	.	16c#X/JJ	.	16cc#\JJ	.	.	.	.	.	.	.
=66	=66	=66	=66	=66	=66	=66	=66	=66	=66	=66	=66
!LO:TX:a:t=5.	!	!	!	!	!	!	!	!	!	!	!
][>4.GG/	.	16d/LL	.	16ee\LL	.	4.G/]	.	4.g/]	.	4.r	.
!	!	!LO:TX:a:t=problem:niewyraźny znak	!	!	!	!	!	!	!	!	!
.	.	16c#/JJ	.	16cc#X\JJ	.	.	.	.	.	.	.
.	.	4d/	.	4dd\	.	.	.	.	.	.	.
=67	=67	=67	=67	=67	=67	=67	=67	=67	=67	=67	=67
!LO:TX:a:t=6.	!	!	!	!	!	!	!	!	!	!	!
][>4.GG/	.	8e/	.	(16ee\LL	.	8r	p	8r	p	8ee\	li
.	.	.	.	32ff\L	.	.	.	.	.	.	.
.	.	.	.	32ee\JJJ)	.	.	.	.	.	.	.
.	.	16cn/LL	.	16cc\LL	.	8dd\L	.	8dd\L	.	8cc\	li
.	.	16B/	.	16b\	.	.	.	.	.	.	.
.	.	16c/	.	16cc\	.	8dd\J	.	8dd\J	.	8a\	li
.	.	16A/JJ	.	16a\JJ	.	.	.	.	.	.	.
=68	=68	=68	=68	=68	=68	=68	=68	=68	=68	=68	=68
!LO:TX:a:t=7.	!	!	!	!	!	!	!	!	!	!	!
][>4.GG/	.	16d/LL	.	16dd\LL	.	8r	.	8r	.	16dd\	li
.	.	16B/	.	16b\	.	.	.	.	.	16b\	li
.	.	16G/	.	16g\	.	8g/L	.	8dd\L	.	4g\	li
.	.	16B/	.	16b\	.	.	.	.	.	.	.
.	.	16d/	.	16dd\	.	8g/J	.	8dd\J	.	.	.
.	.	16g/JJ	.	16gg\JJ	.	.	.	.	.	.	.
=69	=69	=69	=69	=69	=69	=69	=69	=69	=69	=69	=69
!LO:TX:a:t=8.	!	!	!	!	!	!	!	!	!	!	!
][>4.GG/	.	8e/	.	(16ee\LL	.	8r	.	8r	.	16ee\	o-
.	.	.	.	32ff\L	.	.	.	.	.	16ee\	-di-
.	.	.	.	32ee\JJJ)	.	.	.	.	.	.	.
.	.	16c/LL	.	16cc\LL	.	8dd\L	.	8dd\L	.	8cc\	-le-
.	.	16B/	.	16b\	.	.	.	.	.	.	.
.	.	16c/	.	16cc\	.	8dd\J	.	8dd\J	.	8a\	-cte
.	.	16A/JJ	.	16a\JJ	.	.	.	.	.	.	.
=70	=70	=70	=70	=70	=70	=70	=70	=70	=70	=70	=70
!LO:TX:a:t=9.	!	!	!LO:LB:g=original	!	!	!	!	!	!	!	!
][>4.GG/	.	16B/LL	.	16b\LL	.	8r	.	8r	.	16b\LL	Fi-
.	.	16d/JJ	.	16dd\	.	.	.	.	.	16dd\JJ	.
.	.	4G/	.	16g\	.	8g/L	.	8dd\L	.	4g\	-li
.	.	.	.	16b\	.	.	.	.	.	.	.
.	.	.	.	16dd\	.	8g/J	.	8dd\J	.	.	.
.	.	.	.	16gg\JJ	.	.	.	.	.	.	.
=71	=71	=71	=71	=71	=71	=71	=71	=71	=71	=71	=71
!LO:TX:a:t=10.	!	!	!	!	!	!	!	!	!	!LO:TX:a:t=Problem&colon; 00r 0r 1r 7	!
][>4.GG/	.	8d/L 8a	.	16ff#X\LL	.	4.dd\	.	(4.dd\	f	4.r	.
.	.	.	.	16ee\	.	.	.	.	.	.	.
.	.	8d/ 8a	.	16ff#\	.	.	.	.	.	.	.
.	.	.	.	16dd\	.	.	.	.	.	.	.
.	.	8d/J 8a	.	16ee\	.	.	.	.	.	.	.
.	.	.	.	16ff#\JJ	.	.	.	.	.	.	.
=72	=72	=72	=72	=72	=72	=72	=72	=72	=72	=72	=72
!LO:TX:a:t=11.	!	!	!	!	!	!	!	!	!	!	!
*	*	*tremolo	*	*	*	*	*	*	*	*	*
][>4.GG/	.	8d/L 8b	.	16gg\LL	.	4.g/	.	4.dd\)	.	4.r	.
.	.	.	.	16ff\	.	.	.	.	.	.	.
.	.	8d/ 8b	.	16gg\	.	.	.	.	.	.	.
.	.	.	.	16bb\	.	.	.	.	.	.	.
.	.	8d/J 8b	.	16gg\	.	.	.	.	.	.	.
.	.	.	.	16dd\JJ	.	.	.	.	.	.	.
=73	=73	=73	=73	=73	=73	=73	=73	=73	=73	=73	=73
!LO:TX:a:t=12.	!	!	!	!	!	!	!	!	!	!	!
][>4.GG/	.	8d/L 8a	.	16ff\LL	.	4.dd\	.	8dd\L	.	4.r	.
.	.	.	.	16ee\	.	.	.	.	.	.	.
.	.	8d/ 8a	.	16ff\	.	.	.	8ff#X\	.	.	.
.	.	.	.	16dd\	.	.	.	.	.	.	.
.	.	8d/J 8a	.	16ee\	.	.	.	8dd\J	.	.	.
.	.	.	.	16ff\JJ	.	.	.	.	.	.	.
*	*	*Xtremolo	*	*	*	*	*	*	*	*	*
=74	=74	=74	=74	=74	=74	=74	=74	=74	=74	=74	=74
!LO:TX:a:t=13.	!	!	!	!	!	!	!	!	!	!	!
][>4.GG/	.	8d/L 8b	.	16gg\LL	.	[>4.g/	.	[4.dd\	.	4.r	.
.	.	.	.	16ff#X\	.	.	.	.	.	.	.
.	.	8d/ 8b	.	16gg\	.	.	.	.	.	.	.
.	.	.	.	16bb\	.	.	.	.	.	.	.
.	.	8d/J 8cc	.	16ff#\	.	.	.	.	.	.	.
.	.	.	.	16dd\JJ	.	.	.	.	.	.	.
=75	=75	=75	=75	=75	=75	=75	=75	=75	=75	=75	=75
!LO:TX:a:t=14.	!	!LO:TX:a:t=Problem&colon; repetycja taktu	!	!	!	!	!	!	!	!	!
][>4.GG/	.	8d/L 8b	.	16gg\LL	.	][>4.g/	.	]4.dd\[	.	4.r	.
.	.	.	.	16ff\	.	.	.	.	.	.	.
.	.	8d/ 8b	.	16gg\	.	.	.	.	.	.	.
.	.	.	.	16bb\	.	.	.	.	.	.	.
.	.	8d/J 8cc	.	16ff\	.	.	.	.	.	.	.
.	.	.	.	16dd\JJ	.	.	.	.	.	.	.
=76	=76	=76	=76	=76	=76	=76	=76	=76	=76	=76	=76
!LO:PB:g=original	!	!	!	!	!	!	!	!LO:LB:g=original	!	!	!
16GG/LL]	.	8d/Lyy 8byy	.	16gg\LL	.	4.g/]	.	4.dd\]	.	4.r	.
!LO:TX:a:t=Problem&colon; mixed beam	!	!	!	!	!	!	!	!	!	!	!
16G\JJ	.	.	.	16ff\	.	.	.	.	.	.	.
4GG/	.	8d/yy 8byy	.	16gg\	.	.	.	.	.	.	.
.	.	.	.	16bb\	.	.	.	.	.	.	.
.	.	8d/Jyy 8ccyy	.	16ff\	.	.	.	.	.	.	.
.	.	.	.	16dd\JJ	.	.	.	.	.	.	.
=77	=77	=77	=77	=77	=77	=77	=77	=77	=77	=77	=77
!LO:TX:b:t=unis	!	!	!	!LO:LB:g=original	!	!LO:LB:g=original	!	!	!	!	!
8G`\	.	16d/LL 16b	.	16gg\LL	.	16g/LL	.	16dd\LL	.	4.r	.
.	.	16d/JJ 16b	.	16gg\JJ	.	16g/JJ	.	16dd\JJ	.	.	.
4D`\	.	4d/ 4b	.	4gg\	.	4g/	.	4dd\	.	.	.
=78	=78	=78	=78	=78	=78	=78	=78	=78	=78	=78	=78
!	!	!LO:PB:g=original	!	!	!	!	!	!LO:TX:a:t=Problem&colon; 12	!	!	!
16BB-'/LL	.	8g/	.	8gg\	.	4.r	.	4.r	.	8gg\	Sal-
16AA'/JJ	.	.	.	.	.	.	.	.	.	.	.
4GG'/	.	4d/	.	4dd\	.	.	.	.	.	4dd\	-ve
=79	=79	=79	=79	=79	=79	=79	=79	=79	=79	=79	=79
8C/L	.	16B/LL	.	16b/LL	.	4.r	.	4.r	.	16b\LL	Fi-
.	.	16A/JJ	.	16a/JJ	.	.	.	.	.	16a\JJ	.
8BB-/	6 5	4G/	.	4g/	.	.	.	.	.	4g\	-li
8C/J	.	.	.	.	.	.	.	.	.	.	.
=80	=80	=80	=80	=80	=80	=80	=80	=80	=80	=80	=80
4G\	.	8g\L	.	16cc\LL	.	4.r	.	4.r	.	8cc\	pul-
.	.	.	.	16ee\	.	.	.	.	.	.	.
.	.	8dd\	.	16ff\	.	.	.	.	.	8ff\	-her-
.	.	.	.	16dd\	.	.	.	.	.	.	.
8r	.	8cc\J	.	16ee\	.	.	.	.	.	8ee\	-ri-
.	.	.	.	16cc\JJ	.	.	.	.	.	.	.
=81	=81	=81	=81	=81	=81	=81	=81	=81	=81	=81	=81
!LO:TX:b:t=unis	!	!	!	!	!	!	!	!	!	!	!
8G`\	.	4b\	.	16dd\LL	.	4.r	.	4.r	.	4dd\	-me
.	.	.	.	16gg\	.	.	.	.	.	.	.
4D`\	.	.	.	16ff#X\	.	.	.	.	.	.	.
.	.	.	.	16gg\J	.	.	.	.	.	.	.
!	!	!	!	!LO:TX:a:t=Problem&colon; mixed beam	!	!	!	!	!	!	!
.	.	8r	.	8g/J	.	.	.	.	.	8r	.
=82	=82	=82	=82	=82	=82	=82	=82	=82	=82	=82	=82
!	!	!	!	!	!	!	!	!	!	!LO:LB:g=original	!
16BB-'/LL	.	8g/	.	8gg\	.	4.r	.	4.r	.	8gg\	Sal-
16AA'/JJ	.	.	.	.	.	.	.	.	.	.	.
4GG'/	.	4d/	.	4dd\	.	.	.	.	.	4dd\	-ve
=83	=83	=83	=83	=83	=83	=83	=83	=83	=83	=83	=83
8C/L	.	16B/LL	.	16b/LL	.	4.r	.	4.r	.	16b\LL	Je-
.	.	16A/JJ	.	16a/JJ	.	.	.	.	.	16a\JJ	.
8BB-/	6 5	4G/	.	4g/	.	.	.	.	.	4g\	-su
8C/J	.	.	.	.	.	.	.	.	.	.	.
=84	=84	=84	=84	=84	=84	=84	=84	=84	=84	=84	=84
!LO:TX:a:t=Problem&colon; mixed beam	!	!	!	!	!	!	!	!	!	!	!
8GG/L	.	8g\L	.	16cc\LL	p	4.r	.	4.r	.	8cc\	dul-
.	.	.	.	32dd\L	.	.	.	.	.	.	.
.	.	.	.	32ee\JJJ	.	.	.	.	.	.	.
8G\	.	8dd\	.	16ff\LL	.	.	.	.	.	8ff\	-cis-
.	.	.	.	16dd\	.	.	.	.	.	.	.
8F\J	.	8cc\J	.	16ee\	.	.	.	.	.	8ee\	-ſi-
.	.	.	.	16gg\JJ	.	.	.	.	.	.	.
=85	=85	=85	=85	=85	=85	=85	=85	=85	=85	=85	=85
4E\	6	4b\	.	4dd\	.	4.r	.	4.r	.	4dd\	-me
8E\	7	8r	.	8r	.	.	.	.	.	8r	.
.	5	.	.	.	.	.	.	.	.	.	.
=86	=86	=86	=86	=86	=86	=86	=86	=86	=86	=86	=86
8F\L	.	4c/	.	16gg\LL	.	4.r	.	4.r	.	16gg\LL	Sal-
.	.	.	.	16ff\	.	.	.	.	.	16ff\	.
!LO:TX:a:t=Problem&colon; mixed beam	!	!	!	!	!	!	!	!	!	!	!
8FF/	.	.	.	16ee\	.	.	.	.	.	16ee\	.
.	.	.	.	16dd\	.	.	.	.	.	16dd\	.
8F\J	.	8g/	.	16cc\	.	.	.	.	.	16cc\	.
.	.	.	.	16b-X\JJ	.	.	.	.	.	16b-X\JJ	-ve
=87	=87	=87	=87	=87	=87	=87	=87	=87	=87	=87	=87
!LO:LB:g=original	!	!	!	!	!	!	!	!	!	!	!
4F\	6	4c/	.	8b/	.	4.r	.	4.r	.	8b\	Je-
.	.	.	.	4a/	.	.	.	.	.	4a\	-su
8F#X\	5	8r	.	.	.	.	.	.	.	.	.
=88	=88	=88	=88	=88	=88	=88	=88	=88	=88	=88	=88
!	!	!	!	!LO:LB:g=original	!	!	!	!	!	!	!
8G\L	.	8a/L	.	16aa\LL	.	4.r	.	4.r	.	16aa\LL	dul-
.	.	.	.	16ff\	.	.	.	.	.	16ff\JJ	.
16G\L	.	8a/	.	16dd\	.	.	.	.	.	8dd\	-cis-
16Fn\	.	.	.	16ff\	.	.	.	.	.	.	.
16E\	.	8a/J	.	16a\	.	.	.	.	.	8cc\	-ſi-
16D\JJ	.	.	.	16cc\JJ	.	.	.	.	.	.	.
=89	=89	=89	=89	=89	=89	=89	=89	=89	=89	=89	=89
.	.	.	.	16qqcc/	.	.	.	.	.	.	.
8C/L	.	4d/	.	4b\	.	4.r	.	4.r	.	4b\	-me
!LO:TX:a:t=Problem&colon; mixed beam - 4 takty	!	!	!	!	!	!	!	!	!	!	!
8c\	.	.	.	.	.	.	.	.	.	.	.
8C/J	.	8r	.	8r	.	.	.	.	.	8r	.
=90	=90	=90	=90	=90	=90	=90	=90	=90	=90	=90	=90
!	!	!LO:LB:g=original	!	!	!	!	!	!	!	!LO:PB:g=original	!
8r	.	16ee\LL	.	16gg\LL	.	8r	p	8r	p	16gg\	li
.	.	16dd\	.	16ff\	.	.	.	.	.	16ff\	li
8G\L	.	16cc\	.	16ee\	.	8cc\L	.	8ee\L	.	8ee\	li
.	.	16b\	.	16dd\	.	.	.	.	.	.	.
!	!	!	!	!	!	!	!	!	!	!LO:TX:a:t=Problem&colon; przekreślona nuta A i dopisana ołówkiem nuta C	!
8GG/J	.	16cc\	.	16ee\	.	8cc\J	.	8ee\J	.	8a\	li
.	.	16a\JJ	.	16cc\JJ	.	.	.	.	.	.	.
=91	=91	=91	=91	=91	=91	=91	=91	=91	=91	=91	=91
8r	.	16dd\LL	.	16ff\LL	.	8r	.	8r	.	16ff\	li
.	.	16cc\	.	16ee\	.	.	.	.	.	16ee\	li
8c\L	.	16b\	.	16dd\	.	8g/L	.	8dd\L	.	4dd\	li
.	.	16a\J	.	16cc\	.	.	.	.	.	.	.
8C/J	.	8g\J	.	16b\	.	8g/J	.	8dd\J	.	.	.
.	.	.	.	16g\JJ	.	.	.	.	.	.	.
=92	=92	=92	=92	=92	=92	=92	=92	=92	=92	=92	=92
8r	.	16ee\LL	.	16gg\LL	.	8r	.	8r	.	16gg\	{li
.	.	16dd\	.	16ff\	.	.	.	.	.	16ff\	li
8G\L	.	16cc\	.	16ee\	.	8cc\L	.	8ee\L	.	8ee\	li
.	.	16b\	.	16dd\	.	.	.	.	.	.	.
8GG/J	.	16cc\	.	16ee\	.	8cc\J	.	8ee\J	.	8a\	li
.	.	16a\JJ	.	16cc\JJ	.	.	.	.	.	.	.
=93	=93	=93	=93	=93	=93	=93	=93	=93	=93	=93	=93
8C/L	.	16dd\LL	.	16ff\LL	.	8r	.	8r	.	16ff\	li
.	.	16cc\	.	16ee\	.	.	.	.	.	16ee\	li
8BB-/	6 5	16b\	.	16dd\	.	8g/L	.	8dd\L	.	4dd\	li}
.	.	16a\J	.	16cc\	.	.	.	.	.	.	.
8C/J	.	8g\J	.	16b\	.	8g/J	.	8dd\J	.	.	.
.	.	.	.	16g\JJ	.	.	.	.	.	.	.
=94	=94	=94	=94	=94	=94	=94	=94	=94	=94	=94	=94
!	!	!	!	!	!	!	!	!LO:HP:t=for	!	!	!
8G\	7	8g\L	.	16ee\LL	.	8cc\L	f	8ee\L	f	16ee\	o-
.	.	.	.	16cc\	.	.	.	.	.	16cc\	-di-
4C/	.	8dd\	.	16ff\	.	8dd\	.	8ff\	.	8ff\	-le-
.	.	.	.	16dd\	.	.	.	.	.	.	.
.	.	8cc\J	.	16ee\	.	8cc\J	.	8ee\J	.	8ee\	-cte
.	.	.	.	16cc\JJ	.	.	.	.	.	.	.
=95	=95	=95	=95	=95	=95	=95	=95	=95	=95	=95	=95
!LO:TX:b:t=1	!	!	!	!	!	!	!	!	!	!	!
!LO:TX:a:t=tasto  pedale	!	!	!	!	!	!	!	!	!	!	!
[>4.C/	.	16f/LL	.	16dd\LL	.	8g/L	.	8dd\L	.	16dd\LL	Fi-
.	.	16d/JJ	.	16b\J	.	.	.	.	.	16b\JJ	.
.	.	4e/	.	8cc\J	.	16e/L	.	16cc\L	.	4cc\	-li
.	.	.	.	.	.	16e/J	.	16cc\J	.	.	.
.	.	.	.	16r	.	8e/J	.	8cc\J	.	.	.
.	.	.	.	16g/	f	.	.	.	.	.	.
=96	=96	=96	=96	=96	=96	=96	=96	=96	=96	=96	=96
!LO:TX:b:t=2	!	!	!	!LO:LB:g=original	!	!	!	!	!	!LO:TX:a:t=Problem&colon; 00r4	!
][>4.C/	.	16c/LL	.	16cc\LL	.	[>4.c/	.	[4.cc\	.	4.r	.
.	.	16d/	.	16dd\	.	.	.	.	.	.	.
.	.	16e/	.	16ee\	.	.	.	.	.	.	.
.	.	16f#X/	.	16ff#X\	.	.	.	.	.	.	.
.	.	16g/	.	16gg\	.	.	.	.	.	.	.
.	.	16f#/JJ	.	16ff#\JJ	.	.	.	.	.	.	.
=97	=97	=97	=97	=97	=97	=97	=97	=97	=97	=97	=97
!LO:TX:b:t=3	!	!	!	!	!	!	!	!	!	!	!
][>4.C/	.	16a/LL	.	16aa\LL	.	][>4.c/	.	][>4.cc\	.	4.r	.
.	.	16f/JJ	.	16ff\JJ	.	.	.	.	.	.	.
.	.	8.g/L	.	8.gg\L	.	.	.	.	.	.	.
.	.	(48fn/LL	.	(48ffn\LL	.	.	.	.	.	.	.
.	.	48e/	.	48ee\	.	.	.	.	.	.	.
.	.	48d/JJJ)	.	48dd\JJJ)	.	.	.	.	.	.	.
=98	=98	=98	=98	=98	=98	=98	=98	=98	=98	=98	=98
!LO:LB:g=original	!	!	!	!	!	!	!	!	!	!	!
!LO:TX:a:t=4	!	!LO:LB:g=original	!	!	!	!	!	!	!	!	!
][>4.C/	.	16c/LL	.	16cc\LL	.	][>4.c/	.	][>4.cc\	.	4.r	.
.	.	16B/	.	16b\	.	.	.	.	.	.	.
.	.	16c/	.	16cc\	.	.	.	.	.	.	.
.	.	16d/	.	16dd\	.	.	.	.	.	.	.
.	.	16e/	.	16ee\	.	.	.	.	.	.	.
.	.	16f#X/JJ	.	16ff#X\JJ	.	.	.	.	.	.	.
=99	=99	=99	=99	=99	=99	=99	=99	=99	=99	=99	=99
!LO:TX:a:t=5	!	!	!	!	!	!	!	!	!	!	!
][>4.C/	.	16a/LL	.	16aa\LL	.	4.c/]	.	4.cc\]	.	4.r	.
.	.	16f#X/JJ	.	16ff#X\JJ	.	.	.	.	.	.	.
.	.	8.g/L	.	8.gg\L	.	.	.	.	.	.	.
.	.	16e/Jk	.	16ee\Jk	.	.	.	.	.	.	.
=100	=100	=100	=100	=100	=100	=100	=100	=100	=100	=100	=100
!LO:TX:a:t=6	!	!	!	!	!	!LO:LB:g=original	!	!LO:LB:g=original	!	!	!
][>4.C/	.	(16fn/LL	.	(16ff\LL	.	8r	p	8r	p	16ff\	li
.	.	32a/L	.	32aa\L	.	.	.	.	.	16aa\	li
.	.	32g/JJJ)	.	32gg\JJJ)	.	.	.	.	.	.	.
.	.	16f/LL	.	16ff\LL	.	8g/L	.	8dd\L	.	8ff\	li
.	.	16e/	.	16ee\	.	.	.	.	.	.	.
.	.	16f/	.	16ff\	.	8g/J	.	8dd\J	.	8dd\	li
.	.	16d/JJ	.	16dd\JJ	.	.	.	.	.	.	.
=101	=101	=101	=101	=101	=101	=101	=101	=101	=101	=101	=101
!LO:TX:a:t=7	!	!	!	!	!	!	!	!	!	!	!
][>4.C/	.	(16e/LL	.	(16ee\LL	.	8r	.	8r	.	16ee\	li
.	.	32g/L	.	32gg\L	.	.	.	.	.	16gg\	li
.	.	32f/JJJ)	.	32ff\JJJ)	.	.	.	.	.	.	.
.	.	16e/LL	.	16ee\LL	.	8cc\L	.	8ee\L	.	4cc\	li
.	.	16d/	.	16dd\	.	.	.	.	.	.	.
.	.	16e/	.	16ee\	.	8cc\J	.	8ee\J	.	.	.
.	.	16c/JJ	.	16cc\JJ	.	.	.	.	.	.	.
=102	=102	=102	=102	=102	=102	=102	=102	=102	=102	=102	=102
!LO:TX:a:t=8	!	!	!	!	!	!	!	!	!	!LO:LB:g=original	!
](>4.C/	.	(16f/LL	.	(16ff\LL	.	8r	.	8r	.	16ff\	{li
.	.	32a/L	.	32aa\L	.	.	.	.	.	16aa\	li
.	.	32g/JJJ)	.	32gg\JJJ)	.	.	.	.	.	.	.
.	.	16f/LL	.	16ff\LL	.	8g/L	.	8dd\L	.	8ff\	li
.	.	16e/	.	16ee\	.	.	.	.	.	.	.
.	.	16f/	.	16ff\	.	8g/J	.	8dd\J	.	8dd\	li
.	.	16d/JJ	.	16dd\JJ	.	.	.	.	.	.	.
=103	=103	=103	=103	=103	=103	=103	=103	=103	=103	=103	=103
!	!	!	!	!LO:LB:g=original	!	!	!	!	!	!	!
4.GG/)	.	(16e/LL	.	(16ee\LL	.	8r	.	8r	.	16ee\	li
.	.	32g/L	.	32gg\L	.	.	.	.	.	16gg\	li
.	.	32f/JJJ)	.	32ff\JJJ)	.	.	.	.	.	.	.
.	.	16e/LL	.	16ee\LL	.	8e/L	.	8cc\L	.	4cc\	li}
.	.	16d/	.	16dd\	.	.	.	.	.	.	.
.	.	16e/	.	16ee\	.	8e/J	.	8cc\J	.	.	.
.	.	16d/JJ	.	16cc\JJ	.	.	.	.	.	.	.
=104	=104	=104	=104	=104	=104	=104	=104	=104	=104	=104	=104
!	!	!LO:LB:g=original	!	!	!	!	!	!	!	!	!
[<4.C/	.	(16d/LL	.	(16dd\LL	.	8r	.	8r	.	16dd\	o-
.	.	32e/L	.	32ee\L	.	.	.	.	.	16dd\	-di-
.	.	32d/JJJ)	.	32dd\JJJ)	.	.	.	.	.	.	.
.	.	16B/LL	.	16b/LL	.	8g/L	.	8dd\L	.	8b\	-le-
.	.	16A/	.	16a/	.	.	.	.	.	.	.
.	.	16B/	.	16b/	.	8g/J	.	8dd\J	.	8g\	-cte
.	.	16G/JJ	.	16g/JJ	.	.	.	.	.	.	.
=105	=105	=105	=105	=105	=105	=105	=105	=105	=105	=105	=105
*	*	*^	*	*	*	*	*	*	*	*	*
!LO:TX:a:t=2	!	!	!LO:TX:a:t=problem:ćwierćnuta z kropką na środku	!	!	!	!	!	!	!	!	!
][<4.C/	.	16c/LL	4.G/	.	16cc\LL	.	[>4.c/	f	[4.cc\	.	8cc\	Fi-
.	.	16c/JJ	.	.	16cc\JJ	.	.	.	.	.	.	.
.	.	8.g/L	.	.	8.ee\L	.	.	.	.	.	4cc\	-li
.	.	16f/Jk	.	.	16dd\Jk	.	.	.	.	.	.	.
=106	=106	=106	=106	=106	=106	=106	=106	=106	=106	=106	=106	=106
!LO:TX:a:t=3	!	!	!LO:TX:a:t=problem:ćwierćnuta z kropką na środku	!	!	!	!	!	!	!	!LO:TX:a:t=Problem&colon; 00r 1r 5	!
][<4.C/	.	8e/L	4.G/	.	16cc\LL	.	][>4.c/	.	]4.cc\[	.	4.r	.
.	.	.	.	.	16ee\JJ	.	.	.	.	.	.	.
.	.	8e/	.	.	16gg\LL	.	.	.	.	.	.	.
.	.	.	.	.	16ff#X\	.	.	.	.	.	.	.
.	.	8f/J	.	.	16gg\	.	.	.	.	.	.	.
.	.	.	.	.	16b\JJ	.	.	.	.	.	.	.
=107	=107	=107	=107	=107	=107	=107	=107	=107	=107	=107	=107	=107
!LO:TX:a:t=4	!	!	!LO:TX:a:t=problem:ćwierćnuta z kropką na środku	!	!	!	!	!	!	!	!	!
][<4.C/	.	16e/LL	4.G/	.	16cc\LL	.	][>4.c/	.	]4.cc\[	.	4.r	.
.	.	16e/JJ	.	.	16cc\JJ	.	.	.	.	.	.	.
.	.	8.g/L	.	.	8.ee\L	.	.	.	.	.	.	.
.	.	16f/Jk	.	.	16dd\Jk	.	.	.	.	.	.	.
=108	=108	=108	=108	=108	=108	=108	=108	=108	=108	=108	=108	=108
!LO:TX:a:t=5	!	!	!LO:TX:a:t=problem:ćwierćnuta z kropką na środku	!	!	!	!	!	!	!	!	!
][<4.C/	.	8e/L	4.G/	.	16cc\LL	.	][>4.c/	.	]4.cc\[	.	4.r	.
.	.	.	.	.	16ee\	.	.	.	.	.	.	.
.	.	8e/	.	.	16gg\	.	.	.	.	.	.	.
.	.	.	.	.	16ff#X\	.	.	.	.	.	.	.
.	.	8f/J	.	.	16gg\	.	.	.	.	.	.	.
.	.	.	.	.	16b\JJ	.	.	.	.	.	.	.
=109	=109	=109	=109	=109	=109	=109	=109	=109	=109	=109	=109	=109
!LO:TX:a:t=6	!	!	!LO:TX:a:t=problem:ćwierćnuta z kropką na środku	!	!	!	!	!	!	!	!	!
4.C/]	.	16e/LL	4.G/	.	16cc\LL	.	4.c/]	.	4.cc\]	.	4.r	.
.	.	16e/JJ	.	.	16cc\JJ	.	.	.	.	.	.	.
.	.	8.g/L	.	.	8.ee\L	.	.	.	.	.	.	.
.	.	16f/Jk	.	.	16dd\Jk	.	.	.	.	.	.	.
=110	=110	=110	=110	=110	=110	=110	=110	=110	=110	=110	=110	=110
!	!	!	!LO:TX:a:t=problem:ćwierćnuta z kropką na środku	!	!	!	!	!	!	!	!	!
4.r	.	16e/LL	4.G/	.	16cc\LL	.	16e/LL	.	16cc\LL	.	4.r	.
.	.	16e/JJ	.	.	16ccc\JJ	.	16e/JJ	.	16cc\JJ	.	.	.
!LO:TX:a:t=Finis	!	!LO:TX:a:t=Finis	!	!	!LO:TX:a:t=Finis	!	!	!	!	!	!LO:TX:a:t=Finis	!
.	.	4e/	.	.	4cc\	.	4e/	.	4cc\	.	.	.
*	*	*v	*v	*	*	*	*	*	*	*	*	*
==	==	==	==	==	==	==	==	==	==	==	==
*-	*-	*-	*-	*-	*-	*-	*-	*-	*-	*-	*-
!!!system-decoration: {g4}[(g3)][(g2)]g1
!!!RDF**kern: <= below
!!!RDF**kern: >=above
!!!ENC: Anna Matuszewska
!!!END: 2020-04-06
